packages/kaspersky-hexa-ui-icons/src/iconsSVGs/48/Scan2.svg

<svg xmlns="http://www.w3.org/2000/svg" width="48" height="48" fill="none" viewBox="0 0 48 48"><path fill="currentColor" fill-rule="evenodd" d="M2 6H0V0h6v2H2zm40-6v2h4v4h2V0zM2 42H0v6h6v-2H2zm44 4h-4v2h6v-6h-2zm-15-4h3v2H14v-2h3v-5H4V19h2v10h36V19h2v18H31zm11-7v-5H6v5zm-13 7v-5H19v5zm15-27h4v2H0v-2h4V4h40zM6 15h36V6H6zm5 4H9v5h2zm-2 8h2v-2H9zm6-8h-2v1h2zm-2 7h2v-5h-2zm10-7h-2v2h2zm-2 7h2v-4h-2zm14-7h-2v1h2zm-2 7h2v-5h-2zm-2-7h-2v1h2zm-2 4h2v-2h-2zm-10-4h-2v3h2zm-2 5h2v-1h-2zm10-5h-2v6h2zm-2 8h2v-1h-2zm14-8h-2v6h2zm-2 8h2v-1h-2z" clip-rule="evenodd"/></svg>

<svg width="48" height="48" viewBox="0 0 48 48" fill="none" xmlns="http://www.w3.org/2000/svg">
<path fill-rule="evenodd" clip-rule="evenodd" d="M2 6H0V0H6V2H2V6ZM42 0V2H46V6H48V0H42ZM2 42H0V48H6V46H2V42ZM46 46H42V48H48V42H46V46ZM31 42H34V44H14V42H17V37H4V19H6V29H42V19H44V37H31V42ZM42 35V30H6V35H42ZM29 42V37H19V42H29ZM44 15H48V17H0V15H4V4H44V15ZM6 15H42V6H6V15ZM11 19H9V24H11V19ZM9 27H11V25H9V27ZM15 19H13V20H15V19ZM13 26H15V21H13V26ZM23 19H21V21H23V19ZM21 26H23V22H21V26ZM35 19H33V20H35V19ZM33 26H35V21H33V26ZM31 19H29V20H31V19ZM29 23H31V21H29V23ZM19 19H17V22H19V19ZM17 24H19V23H17V24ZM27 19H25V25H27V19ZM25 27H27V26H25V27ZM39 19H37V25H39V19ZM37 27H39V26H37V27Z"  fill="currentColor"/>
</svg>
